X:2711
T:With each new day
C:Charles H. Purday
R:Hymn
Z:Transcribed by Frank Nordberg - http://www.musicaviva.com
F:http://abc.musicaviva.com/tunes/purday-charles-h/with-each-new-day.abc
V:1 Program 1 40 up %Violin
V:2 Program 1 40 merge down %Violin
V:3 Program 1 41 bass up %Viola
V:4 Program 1 42 bass merge down %Cello
M:4/4
L:1/4
Q:1/4=112
K:G
V:1
B2BB|c3B|BAGA|B3G|
V:2
G2GG|G3G|F2EF|G3B,|
V:3
D2DD|E3D|C2B,A,|G,3G,|
V:4
G,2G,G,|G,3G,|D,2D,D,|G,3E,|
%
V:1
A2F2|G3 z:|A2AB|c2A2|dcBA|
V:2
E2D2|D3 z:|F2FG|F2F2|GFGF|
V:3
C2C2|B,3 z:|D2CB,|A,2D2|D2DD|
V:4
C,2D,2|G,2G,,2:|D,2D,D,|D,2D,2|B,A,G,D,|
%
V:1
B3d|e2d2|c3B|dcBA|G4|]
V:2
G3G|G2G2|F3G|GAGF|G4|]
V:3
D3D|C2D2|D3D|EEDC|B,4|]
V:4
G,3B,|C2B,2|A,3G,|C,C,D,D,|G,2G,,2|]
W:
W:
W:  From Musica Viva - http://www.musicaviva.com
W:  the Internet center for free sheet music downloads.

